sitelenpona/static/wuwojiti-1.svg

<svg xmlns="http://www.w3.org/2000/svg" xmlns:xlink="http://www.w3.org/1999/xlink" version="1.1" viewBox="27 74 781 719">
   <path fill="currentColor" d="M686 392q0 3 8.5 16.5t8.5 18.5q0 11 -19 18q-13 6 -37.5 27t-31.5 25q-25 17 -25 33q0 1 2 5q3 6 113 124q27 29 40 37q28 18 28 47q0 10 -2.5 13.5t-10.5 3.5t-14 -1q-16 -2 -26.5 -9.5t-42.5 -39.5q-25 -25 -46 -44.5t-42 -41.5q-26 -26 -36 -31q-12 -6 -21 3 q-10 10 -15 10t-7 11q-2 10 -18 21q-10 7 -13 11.5t-1 13.5q4 14 -2 14q-5 0 -7 12q-1 9 -4.5 11.5t-19.5 4.5q-5 1 -13 1q-14 0 -26 -5q-9 -4 -11 -8t-2 -14v-5q0 -9 -5.5 -16.5t-28.5 -29.5q-36 -35 -44.5 -42.5t-18.5 -9.5q-12 -3 -20 7q-8 8 -30 21q-16 9 -46 38t-30 35 q0 4 -8 6q-7 2 -20 20.5t-15 20.5q-4 4 -12 6.5t-14 2t-6 -4.5q0 -5 -7 -5t-16 -11t-9 -20q0 -16 57 -61q13 -9 13 -14q0 -4 21 -17q19 -12 23 -22q1 -5 6 -9.5t12.5 -9t9.5 -5.5q1 -1 4 -3t7 -5t7 -5l13 -10l-27 -28q-26 -27 -49 -43q-25 -15 -25 -32q0 -7 5 -20 q5 -11 30.5 -35.5t32.5 -24.5q3 0 20.5 -25t17.5 -29q0 -5 -36.5 -39.5t-73.5 -63.5q-38 -28 -46 -40l-9 -13l16 -16q15 -15 25 -15q16 0 59 42q24 23 56 55q8 8 20 14t19 13q9 9 13 9t12 -8t16.5 -18.5t9.5 -11.5q8 -10 8 -11q0 -2 15.5 -16t26.5 -22q15 -10 35 -10 q11 0 33 21q48 44 54 51q4 6 30 29q22 20 31 14q9 -5 9 -12q0 -5 12 -10q13 -6 15 -14q2 -10 6 -10q3 0 19 -22q13 -18 21 -25.5t17 -13.5t19 -16q16 -16 31 -16q18 0 18 28q0 23 -10 30q-9 5 -20 17t-11 17q0 3 -12.5 17.5t-26.5 29.5t-15 16q-30 38 -30 46q0 6 21 24 t41 28q27 14 27 20zM346 264q-4 0 -9 9.5t-9 9.5t-29 37t-25 43q0 4 -5 4t-5 5t-16 21q-17 17 -17 24q0 8 12 21t53 50q39 36 54 51q30 30 35 30t16 16q8 12 12 14t15 0q16 -4 20 -9q1 -1 12.5 -14t22.5 -25.5t11 -14.5q0 -3 9 -8q6 -4 24.5 -30t25.5 -30q11 -7 11 -14 t13 -14q15 -9 20 -22q4 -10 2.5 -14.5t-12.5 -17.5q-14 -18 -20 -18q-7 -2 -74 -74q-21 -23 -37 -37q-19 -17 -21 -21q-3 -5 -13 -12t-16 -7q-11 0 -37 29q-16 18 -23 18z"/>
</svg>

<svg xmlns="http://www.w3.org/2000/svg" xmlns:xlink="http://www.w3.org/1999/xlink" version="1.1" viewBox="27 74 781 719">
  <g>
    <path fill="currentColor" d="M 686.0,392.0 Q 686.0,395.0 694.5,408.5 Q 703.0,422.0 703.0,427.0 Q 703.0,438.0 684.0,445.0 Q 671.0,451.0 646.5,472.0 Q 622.0,493.0 615.0,497.0 Q 590.0,514.0 590.0,530.0 Q 590.0,531.0 592.0,535.0 Q 595.0,541.0 705.0,659.0 Q 732.0,688.0 745.0,696.0 Q 773.0,714.0 773.0,743.0 Q 773.0,753.0 770.5,756.5 Q 768.0,760.0 760.0,760.0 Q 752.0,760.0 746.0,759.0 Q 730.0,757.0 719.5,749.5 Q 709.0,742.0 677.0,710.0 Q 652.0,685.0 631.0,665.5 Q 610.0,646.0 589.0,624.0 Q 563.0,598.0 553.0,593.0 Q 541.0,587.0 532.0,596.0 Q 522.0,606.0 517.0,606.0 Q 512.0,606.0 510.0,617.0 Q 508.0,627.0 492.0,638.0 Q 482.0,645.0 479.0,649.5 Q 476.0,654.0 478.0,663.0 Q 482.0,677.0 476.0,677.0 Q 471.0,677.0 469.0,689.0 Q 468.0,698.0 464.5,700.5 Q 461.0,703.0 445.0,705.0 Q 440.0,706.0 432.0,706.0 Q 418.0,706.0 406.0,701.0 Q 397.0,697.0 395.0,693.0 Q 393.0,689.0 393.0,679.0 L 393.0,674.0 Q 393.0,665.0 387.5,657.5 Q 382.0,650.0 359.0,628.0 Q 323.0,593.0 314.5,585.5 Q 306.0,578.0 296.0,576.0 Q 284.0,573.0 276.0,583.0 Q 268.0,591.0 246.0,604.0 Q 230.0,613.0 200.0,642.0 Q 170.0,671.0 170.0,677.0 Q 170.0,681.0 162.0,683.0 Q 155.0,685.0 142.0,703.5 Q 129.0,722.0 127.0,724.0 Q 123.0,728.0 115.0,730.5 Q 107.0,733.0 101.0,732.5 Q 95.0,732.0 95.0,728.0 Q 95.0,723.0 88.0,723.0 Q 81.0,723.0 72.0,712.0 Q 63.0,701.0 63.0,692.0 Q 63.0,676.0 120.0,631.0 Q 133.0,622.0 133.0,617.0 Q 133.0,613.0 154.0,600.0 Q 173.0,588.0 177.0,578.0 Q 178.0,573.0 183.0,568.5 Q 188.0,564.0 195.5,559.5 Q 203.0,555.0 205.0,554.0 Q 206.0,553.0 209.0,551.0 Q 212.0,549.0 216.0,546.0 Q 220.0,543.0 223.0,541.0 L 236.0,531.0 L 209.0,503.0 Q 183.0,476.0 160.0,460.0 Q 135.0,445.0 135.0,428.0 Q 135.0,421.0 140.0,408.0 Q 145.0,397.0 170.5,372.5 Q 196.0,348.0 203.0,348.0 Q 206.0,348.0 223.5,323.0 Q 241.0,298.0 241.0,294.0 Q 241.0,289.0 204.5,254.5 Q 168.0,220.0 131.0,191.0 Q 93.0,163.0 85.0,151.0 L 76.0,138.0 L 92.0,122.0 Q 107.0,107.0 117.0,107.0 Q 133.0,107.0 176.0,149.0 Q 200.0,172.0 232.0,204.0 Q 240.0,212.0 252.0,218.0 Q 264.0,224.0 271.0,231.0 Q 280.0,240.0 284.0,240.0 Q 288.0,240.0 296.0,232.0 Q 304.0,224.0 312.5,213.5 Q 321.0,203.0 322.0,202.0 Q 330.0,192.0 330.0,191.0 Q 330.0,189.0 345.5,175.0 Q 361.0,161.0 372.0,153.0 Q 387.0,143.0 407.0,143.0 Q 418.0,143.0 440.0,164.0 Q 488.0,208.0 494.0,215.0 Q 498.0,221.0 524.0,244.0 Q 546.0,264.0 555.0,258.0 Q 564.0,253.0 564.0,246.0 Q 564.0,241.0 576.0,236.0 Q 589.0,230.0 591.0,222.0 Q 593.0,212.0 597.0,212.0 Q 600.0,212.0 616.0,190.0 Q 629.0,172.0 637.0,164.5 Q 645.0,157.0 654.0,151.0 Q 663.0,145.0 673.0,135.0 Q 689.0,119.0 704.0,119.0 Q 722.0,119.0 722.0,147.0 Q 722.0,170.0 712.0,177.0 Q 703.0,182.0 692.0,194.0 Q 681.0,206.0 681.0,211.0 Q 681.0,214.0 668.5,228.5 Q 656.0,243.0 642.0,258.0 Q 628.0,273.0 627.0,274.0 Q 597.0,312.0 597.0,320.0 Q 597.0,326.0 618.0,344.0 Q 639.0,362.0 659.0,372.0 Q 686.0,386.0 686.0,392.0 M 346.0,264.0 Q 342.0,264.0 337.0,273.5 Q 332.0,283.0 328.0,283.0 Q 324.0,283.0 299.0,320.0 Q 274.0,357.0 274.0,363.0 Q 274.0,367.0 269.0,367.0 Q 264.0,367.0 264.0,372.0 Q 264.0,377.0 248.0,393.0 Q 231.0,410.0 231.0,417.0 Q 231.0,425.0 243.0,438.0 Q 255.0,451.0 296.0,488.0 Q 335.0,524.0 350.0,539.0 Q 380.0,569.0 385.0,569.0 Q 390.0,569.0 401.0,585.0 Q 409.0,597.0 413.0,599.0 Q 417.0,601.0 428.0,599.0 Q 444.0,595.0 448.0,590.0 Q 449.0,589.0 460.5,576.0 Q 472.0,563.0 483.0,550.5 Q 494.0,538.0 494.0,536.0 Q 494.0,533.0 503.0,528.0 Q 509.0,524.0 527.5,498.0 Q 546.0,472.0 553.0,468.0 Q 564.0,461.0 564.0,454.0 Q 564.0,447.0 577.0,440.0 Q 592.0,431.0 597.0,418.0 Q 601.0,408.0 599.5,403.5 Q 598.0,399.0 587.0,386.0 Q 573.0,368.0 567.0,368.0 Q 560.0,366.0 493.0,294.0 Q 472.0,271.0 456.0,257.0 Q 437.0,240.0 435.0,236.0 Q 432.0,231.0 422.0,224.0 Q 412.0,217.0 406.0,217.0 Q 395.0,217.0 369.0,246.0 Q 353.0,264.0 346.0,264.0"/>
  </g>
</svg>
